storage/app/icons/phosphoricons/regular/desk.svg

<svg xmlns="http://www.w3.org/2000/svg" fill="currentColor" viewBox="0 0 256 256"><path d="M248 64H8a8 8 0 0 0 0 16h8v112a8 8 0 0 0 16 0v-48h192v48a8 8 0 0 0 16 0V80h8a8 8 0 0 0 0-16M32 80h88v48H32Zm192 48h-88V80h88ZM96 104a8 8 0 0 1-8 8H64a8 8 0 0 1 0-16h24a8 8 0 0 1 8 8m64 0a8 8 0 0 1 8-8h24a8 8 0 0 1 0 16h-24a8 8 0 0 1-8-8"/></svg>

<svg xmlns="http://www.w3.org/2000/svg" viewBox="0 0 256 256" fill="currentColor"><path d="M248,64H8A8,8,0,0,0,8,80h8V192a8,8,0,0,0,16,0V144H224v48a8,8,0,0,0,16,0V80h8a8,8,0,0,0,0-16ZM32,80h88v48H32Zm192,48H136V80h88ZM96,104a8,8,0,0,1-8,8H64a8,8,0,0,1,0-16H88A8,8,0,0,1,96,104Zm64,0a8,8,0,0,1,8-8h24a8,8,0,0,1,0,16H168A8,8,0,0,1,160,104Z"/></svg>
